Obsidian-SemiLight/actions/24s/list-add-user.svg

<svg viewBox="0 0 24 24" xmlns="http://www.w3.org/2000/svg"><path d="m12 4c-1.662 0-3 1.338-3 3s1.338 3 3 3 3-1.338 3-3-1.338-3-3-3zm0 8c-2.77 0-5 .89198-5 2v5 1h1.2011719 5.7988281v-1h-6v-4.572266c0-.79143 1.784-1.427734 4-1.427734 1.795116 0 3.289377.420682 3.798828 1h1.201172c0-1.10802-2.23-2-5-2zm5 3v2h-2v1h2v2h1v-2h2v-1h-2v-2z" fill="#4d4d4d"/></svg>

<svg xmlns="http://www.w3.org/2000/svg" viewBox="0 0 24 24">
  <defs id="defs3051">
    <style type="text/css" id="current-color-scheme">
      .ColorScheme-Text {
        color:#4d4d4d;
      }
      </style>
  </defs>
 <path style="fill:currentColor;fill-opacity:1;stroke:none" 
     d="M 12 4 C 10.338 4 9 5.338 9 7 C 9 8.662 10.338 10 12 10 C 13.662 10 15 8.662 15 7 C 15 5.338 13.662 4 12 4 z M 12 12 C 9.23 12 7 12.89198 7 14 L 7 19 L 7 20 L 8.2011719 20 L 14 20 L 14 19 L 8 19 L 8 14.427734 C 8 13.636304 9.784 13 12 13 C 13.795116 13 15.289377 13.420682 15.798828 14 L 17 14 C 17 12.89198 14.77 12 12 12 z M 17 15 L 17 17 L 15 17 L 15 18 L 17 18 L 17 20 L 18 20 L 18 18 L 20 18 L 20 17 L 18 17 L 18 15 L 17 15 z "
     class="ColorScheme-Text"
     />
</svg>
